X:39
T:King Georges March
O:No 39 Wm Clarke of Feltwell   MS 1858
N:Bottom of page
I:abc2nwc
M:2/2
L:1/8
K:G
G A|B4d4|g6GA|B2d2c2B2|A4d4|e2g2f2e2|d4c4|BAGA B2A2|G6:|
|:b2|a2g2f2e2|d3e d2d2|c2B2A2G2|d6d2|
edef e2d2|e3f e2fg|a3g f2e2|d6d2|c2B2A2G2|
c4B4|e3d c2B2|A4d4|e2g2f2e2|d4c4|BAGA B2A2|G6|]

